docs/.gitbook/assets/icon-alarm-16@light.svg

<svg width="32" height="32" viewBox="0 0 16 16" fill="none" xmlns="http://www.w3.org/2000/svg">
<rect x="0" y="0" width="16" height="16" fill="#fff"/>
<path fill-rule="evenodd" clip-rule="evenodd" d="M1.96679 1.36034C2.31422 1.12871 2.74376 1 3.25 1C3.66421 1 4 1.33579 4 1.75C4 2.16421 3.66421 2.5 3.25 2.5C3.00624 2.5 2.87328 2.55879 2.79884 2.60841C2.7197 2.66117 2.65758 2.73688 2.60832 2.83541C2.55759 2.93687 2.52848 3.04742 2.51323 3.13892C2.5059 3.1829 2.50253 3.21791 2.50102 3.23898C2.50031 3.24896 2.50004 3.25544 2.49996 3.25785C2.49575 3.66845 2.16159 4 1.75 4C1.33579 4 1 3.66421 1 3.25H1.75C1 3.25 1 3.24963 1 3.24925L1 3.24846L1.00001 3.24677L1.00003 3.24296L1.00014 3.2336L1.00078 3.20817C1.00144 3.18834 1.00265 3.16272 1.00484 3.13211C1.00919 3.07116 1.01753 2.98898 1.03364 2.89233C1.06527 2.70258 1.12991 2.43813 1.26668 2.16459C1.40492 1.88812 1.62405 1.58883 1.96679 1.36034ZM12 1.75C12 1.33579 12.3358 1 12.75 1C13.2562 1 13.6858 1.12871 14.0332 1.36034C14.376 1.58883 14.5951 1.88812 14.7333 2.16459C14.8701 2.43813 14.9347 2.70258 14.9664 2.89233C14.9825 2.98898 14.9908 3.07116 14.9952 3.13211C14.9974 3.16272 14.9986 3.18834 14.9992 3.20817L14.9999 3.2336L15 3.24296L15 3.24677L15 3.24846L15 3.24925C15 3.24963 15 3.25 14.25 3.25H15C15 3.66421 14.6642 4 14.25 4C13.8384 4 13.5042 3.66844 13.5 3.25783C13.5 3.25541 13.4997 3.24894 13.499 3.23898C13.4975 3.21791 13.4941 3.1829 13.4868 3.13892C13.4715 3.04742 13.4424 2.93687 13.3917 2.83541C13.3424 2.73688 13.2803 2.66117 13.2012 2.60841C13.1267 2.55879 12.9938 2.5 12.75 2.5C12.3358 2.5 12 2.16421 12 1.75ZM8 3.5C5.51472 3.5 3.5 5.51472 3.5 8C3.5 9.25431 4.01319 10.3888 4.84105 11.2048C4.84792 11.2113 4.85466 11.2179 4.86125 11.2246C5.67194 12.0139 6.7792 12.5 8 12.5C9.22081 12.5 10.3281 12.0139 11.1388 11.2246C11.1453 11.2179 11.1521 11.2113 11.1589 11.2049C11.9868 10.3888 12.5 9.25432 12.5 8C12.5 5.51472 10.4853 3.5 8 3.5ZM12.6145 11.8352C13.4796 10.7953 14 9.45843 14 8C14 4.68629 11.3137 2 8 2C4.68629 2 2 4.68629 2 8C2 9.45843 2.52035 10.7953 3.38553 11.8352L2.11552 13.8501C1.89465 14.2005 1.99967 14.6636 2.35008 14.8845C2.7005 15.1053 3.16361 15.0003 3.38448 14.6499L4.50267 12.8759C5.4873 13.5834 6.695 14 8 14C9.305 14 10.5127 13.5834 11.4973 12.8759L12.6155 14.6499C12.8364 15.0003 13.2995 15.1053 13.6499 14.8845C14.0003 14.6636 14.1053 14.2005 13.8845 13.8501L12.6145 11.8352ZM8 5C8.41421 5 8.75 5.33579 8.75 5.75V7.68934L9.78033 8.71967C10.0732 9.01256 10.0732 9.48744 9.78033 9.78033C9.48744 10.0732 9.01256 10.0732 8.71967 9.78033L7.46967 8.53033C7.32902 8.38968 7.25 8.19891 7.25 8V5.75C7.25 5.33579 7.58579 5 8 5Z" fill="#000"/>
</svg>

<svg xmlns="http://www.w3.org/2000/svg" width="32" height="32" fill="none" viewBox="0 0 16 16"><path fill="#fff" d="M0 0h16v16H0z"/><path fill="#000" fill-rule="evenodd" d="M1.967 1.36C2.314 1.13 2.744 1 3.25 1a.75.75 0 0 1 0 1.5c-.244 0-.377.059-.451.108a.57.57 0 0 0-.19.227 1.1 1.1 0 0 0-.109.423A.75.75 0 0 1 1 3.25h.75H1v-.042l.005-.076a2.6 2.6 0 0 1 .262-.968c.138-.276.357-.575.7-.804M12 1.75a.75.75 0 0 1 .75-.75c.506 0 .936.129 1.283.36.343.229.562.528.7.805A2.6 2.6 0 0 1 15 3.208v.026l.001.009v.006l-.75.001H15a.75.75 0 1 1-1.501-.011 1.1 1.1 0 0 0-.107-.404.57.57 0 0 0-.19-.227c-.075-.05-.208-.108-.452-.108a.75.75 0 0 1-.75-.75M8 3.5a4.5 4.5 0 1 0 0 9 4.5 4.5 0 0 0 0-9m4.615 8.335a6 6 0 1 0-9.229 0l-1.27 2.015a.75.75 0 1 0 1.268.8l1.119-1.774A5.97 5.97 0 0 0 8 14a5.97 5.97 0 0 0 3.497-1.124l1.119 1.774a.75.75 0 0 0 1.268-.8zM8 5a.75.75 0 0 1 .75.75v1.94l1.03 1.03a.75.75 0 0 1-1.06 1.06L7.47 8.53A.75.75 0 0 1 7.25 8V5.75A.75.75 0 0 1 8 5" clip-rule="evenodd"/></svg>
